X:202
T:score279
L:1/16
Q:1/4=120
M:4/4
I:linebreak $
K:D
!ff! c'2 z2 c'8 (bac'e') | (b6 c'2) b4 c'4 | d'2 z2 d'8 (c'bd'f') | (c'6 d'2) c'4 c'4 | %4
 f'2^g'2 a'2(g'f' e'2)g'2 a'2(f'e' | d'2)^e'2 f'2(=e'd' c'2)^e'2 f'2(d'c' | %6
 b2)c'2 d'2(c'b a2)(^gf ^e)(ceg) | b2c'2 d'2(c'b a2)(^gf e)(fgb) |!ff! c'2 z2 z12 |] %9
